icons/1_Primary/MathWorks.svg

<svg xmlns="http://www.w3.org/2000/svg" width="1024" height="1024" fill="none">
   <g clip-path="url(#a)">
      <path fill="#728DBE" d="M512 1024c282.77 0 512-229.23 512-512S794.77 0 512 0 0 229.23 0 512s229.23 512 512 512Z"/>
      <path fill="#fff" d="M679.81 467.52c-9.83-27.17-18.42-55.12-28.1-82.47-10.48-29.64-21.35-58.12-35.91-83.37-6.05-10.49-21-34.92-37-34.87-4.86 0-8.34 2.08-11.61 4.19-10.35 6.65-23.18 28.13-29.56 39.59-9.68 17.35-29 45.94-43.17 62.65-4.75 5.58-9.31 12.17-14.87 16.89-8.7 7.35-19.73 17.23-31 21.79-3.52 1.43-7.89 2-11.61 3.29a66.785 66.785 0 0 0-22.31 12.53c-11.57 9.76-22.27 22.48-31.74 34.32-2.06 2.54-4.87 6.3-7.64 9.84l49.89 38.86c39-46.29 82.16-90.7 113.25-174.25 0 0-10.82 93.06-91.16 189.46-49.33 59.16-91.94 90.16-97.79 96.4 0 0 14.89-2.58 26.06 2 25.93 10.66 39.59 48.36 50.91 75.25 8 19 17 38.27 24.86 57.57 25.82-5.73 43.28-18.4 60.41-32.86 18.46-15.63 35-36.43 50.6-55.06 30.12-35.87 68.65-84.81 114.22-62.45a128.468 128.468 0 0 1 21.7 14c9.23 7.47 16.69 15.12 25.66 22.7 15.74 13.3 23.94 23.71 36.14 30.87-30.95-66.91-54.26-135-80.19-206.84M325.12 608.94C298.59 591.58 263 568 224 543c46.08-17.34 89.46-30.44 136.36-48.15L417.87 534c-44.81 43.61-70.45 59.86-92.75 74.93"/>
   </g>
   <defs>
      <clipPath id="a">
         <path fill="#fff" d="M0 0h1024v1024H0z"/>
      </clipPath>
   </defs>
</svg>

<svg width="1024" height="1024" viewBox="0 0 1024 1024" fill="none" xmlns="http://www.w3.org/2000/svg">
<g clip-path="url(#clip0_2_2769)">
<path d="M512 1024C794.77 1024 1024 794.77 1024 512C1024 229.23 794.77 0 512 0C229.23 0 0 229.23 0 512C0 794.77 229.23 1024 512 1024Z" fill="#728DBE"/>
<path d="M679.81 467.52C669.98 440.35 661.39 412.4 651.71 385.05C641.23 355.41 630.36 326.93 615.8 301.68C609.75 291.19 594.8 266.76 578.8 266.81C573.94 266.81 570.46 268.89 567.19 271C556.84 277.65 544.01 299.13 537.63 310.59C527.95 327.94 508.63 356.53 494.46 373.24C489.71 378.82 485.15 385.41 479.59 390.13C470.89 397.48 459.86 407.36 448.59 411.92C445.07 413.35 440.7 413.92 436.98 415.21C428.805 417.91 421.23 422.164 414.67 427.74C403.1 437.5 392.4 450.22 382.93 462.06C380.87 464.6 378.06 468.36 375.29 471.9L425.18 510.76C464.18 464.47 507.34 420.06 538.43 336.51C538.43 336.51 527.61 429.57 447.27 525.97C397.94 585.13 355.33 616.13 349.48 622.37C349.48 622.37 364.37 619.79 375.54 624.37C401.47 635.03 415.13 672.73 426.45 699.62C434.45 718.62 443.45 737.89 451.31 757.19C477.13 751.46 494.59 738.79 511.72 724.33C530.18 708.7 546.72 687.9 562.32 669.27C592.44 633.4 630.97 584.46 676.54 606.82C684.225 610.746 691.495 615.436 698.24 620.82C707.47 628.29 714.93 635.94 723.9 643.52C739.64 656.82 747.84 667.23 760.04 674.39C729.09 607.48 705.78 539.39 679.85 467.55M325.12 608.94C298.59 591.58 263 568 224 543C270.08 525.66 313.46 512.56 360.36 494.85L417.87 534C373.06 577.61 347.42 593.86 325.12 608.93" fill="white"/>
</g>
<defs>
<clipPath id="clip0_2_2769">
<rect width="1024" height="1024" fill="white"/>
</clipPath>
</defs>
</svg>
